web/packages/design/src/ResourceIcon/assets/onelogin-light.svg

<svg width="72" height="72" viewBox="0 0 72 72" fill="none" xmlns="http://www.w3.org/2000/svg">
<rect width="72" height="72" rx="36" fill="black"/>
<path d="M27 25C27 24.4477 27.4477 24 28 24H40C40.5523 24 41 24.4477 41 25V49C41 49.5523 40.5523 50 40 50H34C33.4477 50 33 49.5523 33 49V32H28C27.4477 32 27 31.5523 27 31V25Z" fill="white"/>
</svg>

<svg xmlns="http://www.w3.org/2000/svg" width="72" height="72" fill="none" viewBox="0 0 72 72"><rect width="72" height="72" fill="#000" rx="36"/><path fill="#fff" d="M27 25a1 1 0 0 1 1-1h12a1 1 0 0 1 1 1v24a1 1 0 0 1-1 1h-6a1 1 0 0 1-1-1V32h-5a1 1 0 0 1-1-1z"/></svg>
